;FLAVOR:Marlin
;TIME:3936
;Filament used: 1.94313m
;Layer height: 0.2
;MINX:108.001
;MINY:121.642
;MINZ:0.2
;MAXX:152.001
;MAXY:174.119
;MAXZ:65
;Generated with Cura_SteamEngine 4.13.1
M140 S50
M105
M190 S50
M104 S220
M105
M109 S220
M82 ;absolute extrusion mode

G28 ;Home

G92 E0 ;Reset Extruder
G1 Z2.0 F3000 ;Move Z Axis up
G1 X10.1 Y20 Z0.28 F5000.0 ;Move to start position
G1 X10.1 Y200.0 Z0.28 F1500.0 E15 ;Draw the first line
G1 X10.4 Y200.0 Z0.28 F5000.0 ;Move to side a little
G1 X10.4 Y20 Z0.28 F1500.0 E30 ;Draw the second line
G92 E0 ;Reset Extruder
G1 Z2.0 F3000 ;Move Z Axis up

G92 E0
G92 E0
G1 F1500 E-10
;LAYER_COUNT:325
;LAYER:0
M107
G0 F6000 X116.883 Y124.307 Z0.2
;TYPE:SKIRT
G1 F1500 E0
G1 F1200 X117.62 Y123.727 E0.03119
G1 X118.403 Y123.211 E0.06238
G1 X119.228 Y122.765 E0.09357
G1 X120.088 Y122.39 E0.12478
G1 X120.976 Y122.09 E0.15595
G1 X121.887 Y121.867 E0.18715
G1 X122.814 Y121.722 E0.21836
G1 X123.663 Y121.659 E0.24667
G1 X124.102 Y121.647 E0.26128
G1 X124.592 Y121.642 E0.27758
G1 X135.277 Y121.642 E0.63296
G1 X136.133 Y121.653 E0.66143
G1 X137.07 Y121.707 E0.69265
G1 X137.998 Y121.839 E0.72383
G1 X138.912 Y122.051 E0.75503
G1 X139.804 Y122.34 E0.78622
G1 X140.669 Y122.703 E0.81742
G1 X141.499 Y123.139 E0.8486
G1 X142.289 Y123.644 E0.87979
G1 X143.034 Y124.215 E0.91101
G1 X143.727 Y124.847 E0.9422
G1 X144.364 Y125.535 E0.97339
G1 X144.939 Y126.276 E1.00458
G1 X145.45 Y127.062 E1.03577
G1 X145.892 Y127.89 E1.06698
G1 X146.261 Y128.751 E1.09814
G1 X146.556 Y129.642 E1.12936
G1 X146.75 Y130.436 E1.15654
G1 X146.836 Y130.871 E1.17129
G1 X146.929 Y131.402 E1.18922
G1 X151.772 Y160.755 E2.1787
G1 X151.879 Y161.462 E2.20249
G1 X151.98 Y162.394 E2.23367
G1 X152.001 Y163.332 E2.26487
G1 X151.942 Y164.268 E2.29607
G1 X151.803 Y165.196 E2.32728
G1 X151.586 Y166.108 E2.35846
G1 X151.292 Y166.999 E2.38966
G1 X150.923 Y167.861 E2.42085
G1 X150.482 Y168.689 E2.45205
G1 X149.972 Y169.476 E2.48324
G1 X149.397 Y170.217 E2.51444
G1 X148.761 Y170.906 E2.54562
G1 X148.069 Y171.539 E2.57682
G1 X147.325 Y172.11 E2.60801
G1 X146.535 Y172.616 E2.63921
G1 X145.705 Y173.052 E2.6704
G1 X144.841 Y173.417 E2.70159
G1 X143.949 Y173.706 E2.73278
G1 X143.035 Y173.919 E2.76399
G1 X142.107 Y174.052 E2.79517
G1 X141.211 Y174.106 E2.82503
G1 X140.576 Y174.118 E2.84615
G1 X140.204 Y174.119 E2.85853
G1 X139.869 Y174.114 E2.86967
G1 X139 Y174.066 E2.89862
G1 X138.788 Y174.046 E2.9057
G1 X136.199 Y173.826 E2.99212
G1 X133.662 Y173.683 E3.07663
G1 X131.129 Y173.611 E3.16092
G1 X128.641 Y173.611 E3.24367
G1 X126.146 Y173.682 E3.32668
G1 X122.237 Y173.931 E3.45696
G1 X120.956 Y174.039 E3.49972
G1 X120.353 Y174.073 E3.51981
G1 X119.882 Y174.084 E3.53548
G1 X119.685 Y174.085 E3.54203
G1 X119.42 Y174.083 E3.55084
G1 X118.79 Y174.071 E3.5718
G1 X117.853 Y174.013 E3.60303
G1 X116.926 Y173.876 E3.63419
G1 X116.013 Y173.66 E3.6654
G1 X115.122 Y173.367 E3.69659
G1 X114.259 Y172.999 E3.7278
G1 X113.431 Y172.56 E3.75897
G1 X112.643 Y172.051 E3.79017
G1 X111.901 Y171.477 E3.82137
G1 X111.211 Y170.842 E3.85256
G1 X110.578 Y170.15 E3.88375
G1 X110.006 Y169.407 E3.91494
G1 X109.499 Y168.618 E3.94613
G1 X109.061 Y167.788 E3.97735
G1 X108.695 Y166.925 E4.00853
G1 X108.405 Y166.033 E4.03972
G1 X108.191 Y165.12 E4.07091
G1 X108.056 Y164.192 E4.1021
G1 X108.001 Y163.255 E4.13332
G1 X108.025 Y162.318 E4.16449
G1 X108.121 Y161.439 E4.1939
G1 X108.238 Y160.66 E4.2201
G1 X113.073 Y131.541 E5.20187
G1 X113.225 Y130.694 E5.23049
G1 X113.431 Y129.779 E5.26168
G1 X113.714 Y128.885 E5.29287
G1 X114.073 Y128.018 E5.32408
G1 X114.504 Y127.185 E5.35528
G1 X115.004 Y126.392 E5.38646
G1 X115.57 Y125.644 E5.41766
G1 X116.198 Y124.948 E5.44884
G1 X116.299 Y124.853 E5.45345
G0 F1080 X116.883 Y124.307
G0 F6000 X117.246 Y124.523
G1 F1200 X117.977 Y123.963 E5.48407
G1 X118.754 Y123.469 E5.5147
G1 X119.571 Y123.044 E5.54533
G1 X120.422 Y122.692 E5.57596
G1 X121.3 Y122.415 E5.60658
G1 X122.198 Y122.215 E5.63718
G1 X123.111 Y122.094 E5.66781
G1 X123.677 Y122.059 E5.68667
G1 X124.106 Y122.047 E5.70095
G1 X124.592 Y122.042 E5.71711
G1 X135.277 Y122.042 E6.0725
G1 X136.128 Y122.053 E6.1008
G1 X137.047 Y122.106 E6.13142
G1 X137.958 Y122.239 E6.16204
G1 X138.854 Y122.45 E6.19266
G1 X139.728 Y122.738 E6.22326
G1 X140.574 Y123.101 E6.25388
G1 X141.386 Y123.536 E6.28452
G1 X142.156 Y124.04 E6.31513
G1 X142.88 Y124.609 E6.34576
G1 X143.552 Y125.238 E6.37637
G1 X144.167 Y125.924 E6.40702
G1 X144.72 Y126.66 E6.43763
G1 X145.207 Y127.441 E6.46825
G1 X145.624 Y128.262 E6.49887
G1 X145.969 Y129.116 E6.52951
G1 X146.238 Y129.996 E6.56011
G1 X146.359 Y130.517 E6.5779
G1 X146.442 Y130.94 E6.59224
G1 X146.535 Y131.467 E6.61004
G1 X151.377 Y160.815 E7.59935
G1 X151.484 Y161.522 E7.62314
G1 X151.582 Y162.437 E7.65374
G1 X151.6 Y163.358 E7.68438
G1 X151.538 Y164.276 E7.71499
G1 X151.397 Y165.186 E7.74561
G1 X151.178 Y166.08 E7.77623
G1 X150.882 Y166.952 E7.80685
G1 X150.511 Y167.795 E7.83749
G1 X150.068 Y168.602 E7.86811
G1 X149.557 Y169.368 E7.89873
G1 X148.982 Y170.086 E7.92933
G1 X148.346 Y170.752 E7.95996
G1 X147.655 Y171.361 E7.99059
G1 X146.914 Y171.907 E8.02121
G1 X146.128 Y172.387 E8.05184
G1 X145.304 Y172.796 E8.08243
G1 X144.447 Y173.133 E8.11306
G1 X143.564 Y173.394 E8.14369
G1 X142.662 Y173.577 E8.1743
G1 X141.747 Y173.682 E8.20493
G1 X141.203 Y173.706 E8.22304
G1 X140.568 Y173.718 E8.24417
G1 X140.21 Y173.719 E8.25607
G1 X139.875 Y173.714 E8.26722
G1 X139.037 Y173.668 E8.29513
G1 X138.862 Y173.651 E8.30098
G1 X136.185 Y173.423 E8.39034
G1 X133.695 Y173.283 E8.47329
G1 X131.14 Y173.211 E8.5583
G1 X128.63 Y173.211 E8.64178
G1 X126.138 Y173.281 E8.7247
G1 X122.176 Y173.534 E8.85675
G1 X120.922 Y173.64 E8.8986
G1 X120.341 Y173.673 E8.91796
G1 X119.88 Y173.684 E8.9333
G1 X119.683 Y173.685 E8.93985
G1 X119.427 Y173.683 E8.94836
G1 X118.797 Y173.671 E8.96932
G1 X117.878 Y173.614 E8.99995
G1 X116.968 Y173.477 E9.03055
G1 X116.073 Y173.261 E9.06118
G1 X115.2 Y172.969 E9.09179
G1 X114.355 Y172.602 E9.12243
G1 X113.546 Y172.163 E9.15305
G1 X112.778 Y171.655 E9.18367
G1 X112.057 Y171.083 E9.21429
G1 X111.388 Y170.451 E9.24489
G1 X110.776 Y169.762 E9.27555
G1 X110.227 Y169.024 E9.30614
G1 X109.744 Y168.24 E9.33677
G1 X109.33 Y167.417 E9.36741
G1 X108.99 Y166.562 E9.39801
G1 X108.725 Y165.68 E9.42864
G1 X108.537 Y164.779 E9.45925
G1 X108.429 Y163.865 E9.48987
G1 X108.4 Y162.945 E9.52048
G1 X108.451 Y162.025 E9.55113
G1 X108.517 Y161.499 E9.56876
G1 X108.659 Y160.557 E9.60044
G1 X113.493 Y131.456 E10.58161
G1 X113.618 Y130.765 E10.60497
G1 X113.821 Y129.867 E10.63559
G1 X114.102 Y128.99 E10.66622
G1 X114.457 Y128.141 E10.69682
G1 X114.884 Y127.326 E10.72743
G1 X115.381 Y126.55 E10.75808
G1 X115.943 Y125.821 E10.78869
G1 X116.567 Y125.144 E10.81931
G1 X116.656 Y125.063 E10.82332
G0 F1080 X117.246 Y124.523
G0 F6000 X117.609 Y124.742
G1 F1200 X118.334 Y124.203 E10.85336
G1 X119.104 Y123.731 E10.8834
G1 X119.912 Y123.328 E10.91343
G1 X120.753 Y122.999 E10.94347
G1 X121.62 Y122.745 E10.97352
G1 X122.506 Y122.569 E11.00356
G1 X123.691 Y122.458 E11.04315
G1 X124.11 Y122.447 E11.05709
G1 X124.592 Y122.442 E11.07312
G1 X135.277 Y122.442 E11.42851
G1 X136.122 Y122.453 E11.45661
G1 X137.023 Y122.506 E11.48663
G1 X137.917 Y122.638 E11.51669
G1 X138.795 Y122.849 E11.54672
G1 X139.651 Y123.137 E11.57676
G1 X140.478 Y123.499 E11.60679
G1 X141.27 Y123.933 E11.63683
G1 X142.021 Y124.436 E11.66689
G1 X142.724 Y125.003 E11.69693
G1 X143.374 Y125.63 E11.72697
G1 X143.966 Y126.312 E11.757
G1 X144.495 Y127.043 E11.78702
G1 X144.958 Y127.819 E11.81707
G1 X145.35 Y128.632 E11.84709
G1 X145.669 Y129.477 E11.87713
G1 X145.967 Y130.597 E11.91568
G1 X146.048 Y131.01 E11.92968
G1 X146.14 Y131.532 E11.94731
G1 X150.981 Y160.875 E12.93645
G1 X151.088 Y161.582 E12.96023
G1 X151.184 Y162.48 E12.99027
G1 X151.199 Y163.383 E13.02031
G1 X151.135 Y164.284 E13.05035
G1 X150.991 Y165.175 E13.08037
G1 X150.769 Y166.051 E13.11043
G1 X150.471 Y166.903 E13.14045
G1 X150.098 Y167.725 E13.17047
G1 X149.654 Y168.512 E13.20053
G1 X149.142 Y169.256 E13.23056
G1 X148.566 Y169.952 E13.26061
G1 X147.931 Y170.594 E13.29065
G1 X147.242 Y171.177 E13.32067
G1 X146.504 Y171.698 E13.35071
G1 X145.723 Y172.15 E13.38073
G1 X144.904 Y172.532 E13.41078
G1 X144.055 Y172.841 E13.44083
G1 X143.182 Y173.072 E13.47087
G1 X142.293 Y173.226 E13.50088
G1 X141.196 Y173.306 E13.53746
G1 X140.561 Y173.318 E13.55858
G1 X140.216 Y173.319 E13.57006
G1 X139.881 Y173.314 E13.5812
G1 X139.075 Y173.27 E13.60805
G1 X138.828 Y173.247 E13.6163
G1 X136.24 Y173.026 E13.70269
G1 X133.695 Y172.883 E13.78747
G1 X131.151 Y172.811 E13.87212
G1 X128.618 Y172.811 E13.95637
G1 X126.101 Y172.882 E14.04012
G1 X122.218 Y173.13 E14.16953
G1 X120.889 Y173.242 E14.21389
G1 X120.329 Y173.274 E14.23254
G1 X119.878 Y173.284 E14.24755
G1 X119.435 Y173.283 E14.26228
G1 X118.805 Y173.271 E14.28324
G1 X117.903 Y173.214 E14.3133
G1 X117.011 Y173.077 E14.34332
G1 X116.134 Y172.862 E14.37335
G1 X115.279 Y172.57 E14.4034
G1 X114.453 Y172.204 E14.43345
G1 X113.664 Y171.766 E14.46346
G1 X112.916 Y171.26 E14.4935
G1 X112.215 Y170.69 E14.52355
G1 X111.568 Y170.06 E14.55359
G1 X110.979 Y169.376 E14.58361
G1 X110.453 Y168.641 E14.61367
G1 X109.994 Y167.864 E14.64368
G1 X109.606 Y167.048 E14.67374
G1 X109.291 Y166.202 E14.70376
G1 X109.052 Y165.331 E14.7338
G1 X108.891 Y164.442 E14.76385
G1 X108.81 Y163.543 E14.79387
G1 X108.808 Y162.64 E14.82391
G1 X108.912 Y161.558 E14.86006
G1 X109.054 Y160.623 E14.89152
G1 X113.887 Y131.527 E15.87251
G1 X114.012 Y130.836 E15.89587
G1 X114.212 Y129.956 E15.92588
G1 X114.489 Y129.096 E15.95593
G1 X114.841 Y128.264 E15.98598
G1 X115.265 Y127.467 E16.01601
G1 X115.758 Y126.71 E16.04605
G1 X116.316 Y126 E16.07609
G1 X116.935 Y125.342 E16.10614
G1 X117.012 Y125.274 E16.10955
G0 F1080 X117.609 Y124.742
G1 F1500 E6.10955
;MESH:inter_winter_1.stl
G0 F6000 X123.649 Y132.185
G0 X124.39 Y133.057
G0 X124.58 Y133.242
;TYPE:WALL-INNER
G1 F1500 E16.10955
G1 F1200 X123.719 Y138.235 E16.27807
G1 X124.549 Y133.242 E16.28452
G1 X124.58 Y133.242 E16.28555
G0 F6000 X124.972 Y133.325
;TYPE:WALL-OUTER
G1 F1200 X119.874 Y162.887 E17.2833
G1 X119.22 Y162.883 E17.30505
G1 X124.209 Y132.842 E18.3179
G1 X135.816 Y132.842 E18.70395
G1 X140.78 Y162.925 E19.71805
G1 X140.192 Y162.925 E19.7376
G1 X135.408 Y133.922 E20.71528
G1 X135.31 Y133.325 E20.7354
G1 X125.772 Y133.325 E21.05264
G0 F1080 X124.972 Y133.325
G0 F6000 X124.88 Y133.082
;TYPE:SKIN
G1 F1200 X125.163 Y133.082 E21.05584
G1 X133.939 Y133.082 E21.15496
G0 F1080 X135.062 Y133.082
G0 F6000 X135.279 Y133.016
G1 F1200 X135.412 Y133.149 E21.15809
G1 X135.466 Y133.203
G1 X135.743 Y133.481 E21.16462
G0 F6000 X135.66 Y133.68
G1 F1200 X135.716 Y134.019 E21.17128
G1 X136.889 Y141.132 E21.31107
G1 X138.008 Y147.907 E21.44422
G1 X139.181 Y155.02 E21.58401
G1 X140.188 Y161.121 E21.70391
G0 F1080 X140.299 Y161.795
G0 X140.365 Y162.709
G1 F1500 E11.70391
G0 F6000 X140.45 Y162.65
G0 X135.505 Y133.095
G0 X124.779 Y133.095
G0 X120.228 Y159.078
G1 F1500 E21.70391
G0 F6000 X120.21 Y158.96
G1 F1200 X120.169 Y159.201 E21.71053
G1 X119.657 Y162.201 E21.79303
G0 F1080 X119.592 Y162.584
G0 F6000 X119.642 Y162.61
G0 X120.27 Y158.836
G0 X120.251 Y158.717
G1 F1200 X120.292 Y158.475 E21.80101
G1 X121.274 Y152.67 E21.99254
G1 X122.298 Y146.622 E22.19209
G1 X123.281 Y140.817 E22.38363
G1 X123.416 Y140.02 E22.40993
G0 F1080 X123.649 Y138.64
G0 X123.783 Y138.491
G0 F6000 X123.682 Y138.39
G0 X124.779 Y133.095
G0 X135.505 Y133.095
G0 X135.562 Y133.016
G1 F1200 X135.688 Y133.142 E22.41289
;MESH:NONMESH
G0 F300 X135.688 Y133.142 Z0.4
G0 F6000 X135.566 Y133.161
G0 X124.779 Y133.095
G0 X124.58 Y133.242
;TIME_ELAPSED:44.741671
;LAYER:1
M106 S85
;TYPE:WALL-INNER
;MESH:inter_winter_1.stl
G1 F1451.5 X123.719 Y138.235 E22.58141
G1 X124.549 Y133.242 E22.58785
G1 X124.58 Y133.242 E22.58888
G0 F5400 X124.972 Y133.325
;TYPE:WALL-OUTER
G1 F1451.5 X119.874 Y162.887 E23.58663
G1 X119.22 Y162.883 E23.60839
G1 X124.209 Y132.842 E24.62124
G1 X135.816 Y132.842 E25.00729
G1 X140.78 Y162.925 E26.02138
G1 X140.192 Y162.925 E26.04094
G1 X135.31 Y133.325 E27.03874
G1 X125.772 Y133.325 E27.35598
G0 F1306.4 X124.972 Y133.325
G0 F5400 X125.151 Y133.082
;TYPE:SKIN
G1 F1741.8 X125.434 Y133.082 E27.3608
G1 X135.334 Y133.082 E27.52971
G1 X135.57 Y133.13 E27.53382
G1 X136.531 Y138.957 E27.63458
G1 X137.492 Y144.783 E27.73533
G1 X138.413 Y150.368 E27.8319
G1 X139.375 Y156.195 E27.93266
G1 X140.19 Y161.131 E28.01802
G0 F1567.6 X140.296 Y161.778
G0 X140.507 Y162.699
G1 F1500 E18.01802
G0 F5400 X140.435 Y162.669
G0 X135.505 Y133.095
G0 X124.779 Y133.095
G0 X120.228 Y159.079
G1 F1500 E28.01802
G0 F5400 X120.154 Y159.293
G1 F1741.8 X120.097 Y159.633 E28.02813
G1 X119.65 Y162.274 E28.10666
G0 F1567.6 X119.636 Y162.357
G0 X119.662 Y162.613
G0 F5400 X119.638 Y162.497
G0 X120.139 Y159.168
G0 X120.212 Y158.952
G1 F1741.8 X120.269 Y158.612 E28.11785
G1 X121.48 Y151.462 E28.35308
G1 X122.69 Y144.312 E28.58831
G1 X123.423 Y139.983 E28.73073
G0 F1567.6 X123.612 Y138.864
G0 X123.499 Y138.412
G0 F5400 X123.593 Y138.374
G0 X124.702 Y133.132
G0 X124.802 Y133.149
G1 F1741.8 X124.935 Y133.016 E28.73386
G0 F5400 X124.361 Y133.343
;MESH:NONMESH
G0 F300 X124.361 Y133.343 Z0.6
G0 F5400 X124.58 Y133.242
;TIME_ELAPSED:56.416775
;LAYER:2
M106 S170
;TYPE:WALL-INNER
;MESH:inter_winter_1.stl
G1 F1433.6 X123.719 Y138.235 E28.90238
G1 X124.549 Y133.242 E28.90882
G1 X124.58 Y133.242 E28.90985
G0 F4800 X124.972 Y133.325
;TYPE:WALL-OUTER
G1 F1433.6 X119.874 Y162.887 E29.9076
G1 X119.22 Y162.883 E29.92935
G1 X124.209 Y132.842 E30.9422
G1 X135.816 Y132.842 E31.32826
G1 X140.78 Y162.925 E32.34235
G1 X140.192 Y162.925 E32.36191
G1 X135.31 Y133.325 E33.35971
G1 X125.772 Y133.325 E33.67694
G0 F1290.2 X124.972 Y133.325
G0 F4800 X124.88 Y133.082
;TYPE:SKIN
G1 F1911.4 X125.163 Y133.082 E33.68014
G1 X133.939 Y133.082 E33.77927
G0 F1720.3 X135.062 Y133.082
G0 F4800 X135.279 Y133.016
G1 F1911.4 X135.412 Y133.149 E33.7824
G1 X135.466 Y133.203
G1 X135.743 Y133.481 E33.78892
G0 F4800 X135.66 Y133.68
G1 F1911.4 X135.716 Y134.019 E33.79558
G1 X136.889 Y141.132 E33.93531
G1 X138.008 Y147.907 E34.06841
G1 X139.181 Y155.02 E34.20814
G1 X140.188 Y161.121 E34.32799
G0 F1720.3 X140.299 Y161.795
G0 X140.365 Y162.709
G1 F1500 E24.32799
G0 F4800 X140.45 Y162.65
G0 X135.505 Y133.095
G0 X124.779 Y133.095
G0 X120.228 Y159.078
G1 F1500 E34.32799
G0 F4800 X120.21 Y158.96
G1 F1911.4 X120.169 Y159.201 E34.33462
G1 X119.657 Y162.201 E34.41711
G0 F1720.3 X119.592 Y162.584
G0 F4800 X119.642 Y162.61
G0 X120.27 Y158.836
G0 X120.251 Y158.717
G1 F1911.4 X120.292 Y158.475 E34.4251
G1 X121.274 Y152.67 E34.61663
G1 X122.298 Y146.622 E34.81618
G1 X123.281 Y140.817 E35.00771
G1 X123.416 Y140.02 E35.03401
G0 F1720.3 X123.649 Y138.64
G0 X123.783 Y138.491
G0 F4800 X123.682 Y138.39
G0 X124.779 Y133.095
G0 X135.505 Y133.095
G0 X135.562 Y133.016
G1 F1911.4 X135.688 Y133.142 E35.03697
;MESH:NONMESH
G0 F300 X135.688 Y133.142 Z0.8
G0 F4800 X135.566 Y133.161
G0 X124.779 Y133.095
G0 X124.58 Y133.242
;TIME_ELAPSED:68.558330
;LAYER:3
M106 S255
;TYPE:WALL-INNER
;MESH:inter_winter_1.stl
G1 F1434.5 X123.719 Y138.235 E35.20549
G1 X124.549 Y133.242 E35.21194
G1 X124.58 Y133.242 E35.21297
G0 F4800 X124.972 Y133.325
;TYPE:WALL-OUTER
G1 F1434.5 X119.874 Y162.887 E36.21072
G1 X119.22 Y162.883 E36.23247
G1 X124.209 Y132.842 E37.24532
G1 X135.816 Y132.842 E37.63137
G1 X140.78 Y162.925 E38.64547
G1 X140.192 Y162.925 E38.66503
G1 X135.31 Y133.325 E39.66283
G1 X125.772 Y133.325 E39.98006
G0 F1291.1 X124.972 Y133.325
G0 F4800 X125.151 Y133.082
;TYPE:SKIN
G1 F1912.7 X125.434 Y133.082 E39.98489
G1 X135.334 Y133.082 E40.1538
G1 X135.57 Y133.13 E40.15791
G1 X136.531 Y138.957 E40.25867
G1 X137.492 Y144.783 E40.35941
G1 X138.413 Y150.368 E40.45599
G1 X139.375 Y156.195 E40.55675
G1 X140.19 Y161.131 E40.6421
G0 F1721.4 X140.296 Y161.778
G0 X140.507 Y162.699
G1 F1500 E30.6421
G0 F4800 X140.435 Y162.669
G0 X135.505 Y133.095
G0 X124.779 Y133.095
G0 X120.228 Y159.079
G1 F1500 E40.6421
G0 F4800 X120.154 Y159.293
G1 F1912.7 X120.097 Y159.633 E40.65221
G1 X119.65 Y162.274 E40.73075
G0 F1721.4 X119.636 Y162.357
